gtk-icons/Papirus-Dark-GTK/16x16/actions/contrast.svg

<?xml version="1.0" encoding="UTF-8" standalone="no"?>
<!-- Created with Inkscape (http://www.inkscape.org/) -->

<svg
   xmlns:dc="http://purl.org/dc/elements/1.1/"
   xmlns:cc="http://creativecommons.org/ns#"
   xmlns:rdf="http://www.w3.org/1999/02/22-rdf-syntax-ns#"
   xmlns:svg="http://www.w3.org/2000/svg"
   xmlns="http://www.w3.org/2000/svg"
   xmlns:sodipodi="http://sodipodi.sourceforge.net/DTD/sodipodi-0.dtd"
   xmlns:inkscape="http://www.inkscape.org/namespaces/inkscape"
   width="16"
   height="16"
   id="svg3760"
   version="1.1"
   inkscape:version="0.91 r13725"
   sodipodi:docname="contrast.svg">
  <defs
     id="defs3762">
    <style
       type="text/css"
       id="current-color-scheme">
      .ColorScheme-Text {
        color:#4d4d4d;
      }
      .ColorScheme-Background {
        color:#eff0f1;
      }
      .ColorScheme-Highlight {
        color:#3daee9;
      }
      .ColorScheme-ViewText {
        color:#31363b;
      }
      .ColorScheme-ViewBackground {
        color:#fcfcfc;
      }
      .ColorScheme-ViewHover {
        color:#93cee9;
      }
      .ColorScheme-ViewFocus{
        color:#3daee9;
      }
      .ColorScheme-ButtonText {
        color:#31363b;
      }
      .ColorScheme-ButtonBackground {
        color:#eff0f1;
      }
      .ColorScheme-ButtonHover {
        color:#93cee9;
      }
      .ColorScheme-ButtonFocus{
        color:#3daee9;
      }
      </style>
  </defs>
  <sodipodi:namedview
     id="base"
     pagecolor="#ffffff"
     bordercolor="#666666"
     borderopacity="1.0"
     inkscape:pageopacity="0.0"
     inkscape:pageshadow="2"
     inkscape:zoom="23.979308"
     inkscape:cx="3.4966528"
     inkscape:cy="12.674659"
     inkscape:document-units="px"
     inkscape:current-layer="layer1"
     showgrid="false"
     fit-margin-top="0"
     fit-margin-left="0"
     fit-margin-right="0"
     fit-margin-bottom="0"
     inkscape:window-width="1600"
     inkscape:window-height="847"
     inkscape:window-x="0"
     inkscape:window-y="30"
     inkscape:window-maximized="1"
     inkscape:showpageshadow="false"
     inkscape:snap-bbox="true"
     inkscape:object-nodes="true"
     showguides="false">
    <sodipodi:guide
       position="4.1796875e-06,21.999997"
       orientation="22,0"
       id="guide4116" />
    <sodipodi:guide
       position="4.1796875e-06,-2.6953124e-06"
       orientation="0,22"
       id="guide4118" />
    <sodipodi:guide
       position="22.000004,-2.6953124e-06"
       orientation="-22,0"
       id="guide4120" />
    <sodipodi:guide
       position="22.000004,21.999997"
       orientation="0,-22"
       id="guide4122" />
    <sodipodi:guide
       position="2.0000042,19.999997"
       orientation="18,0"
       id="guide4124" />
    <sodipodi:guide
       position="20.000004,1.9999973"
       orientation="-18,0"
       id="guide4128" />
    <sodipodi:guide
       position="20.000004,19.999997"
       orientation="0,-18"
       id="guide4130" />
    <sodipodi:guide
       position="3.0000042,18.999997"
       orientation="16,0"
       id="guide4132" />
    <sodipodi:guide
       position="3.0000042,2.9999973"
       orientation="0,16"
       id="guide4134" />
    <sodipodi:guide
       position="19.000004,2.9999973"
       orientation="-16,0"
       id="guide4136" />
    <sodipodi:guide
       position="19.000004,18.999997"
       orientation="0,-16"
       id="guide4138" />
    <inkscape:grid
       type="xygrid"
       id="grid4140" />
  </sodipodi:namedview>
  <metadata
     id="metadata3765">
    <rdf:RDF>
      <cc:Work
         rdf:about="">
        <dc:format>image/svg+xml</dc:format>
        <dc:type
           rdf:resource="http://purl.org/dc/dcmitype/StillImage" />
        <dc:title></dc:title>
      </cc:Work>
    </rdf:RDF>
  </metadata>
  <g
     inkscape:label="Capa 1"
     inkscape:groupmode="layer"
     id="layer1"
     transform="translate(-553.72253,-589.11926)">
    <rect
       style="color:#4d4d4d;fill:currentColor;fill-opacity:1;stroke:none"
       id="rect4035"
       width="0"
       height="10.999983"
       x="537.72253"
       y="591.11926"
       class="ColorScheme-Text" />
    <rect
       style="color:#4d4d4d;fill:currentColor;fill-opacity:1;stroke:none"
       id="rect4035-5"
       width="0"
       height="10.999983"
       x="555.76331"
       y="589.06799"
       class="ColorScheme-Text" />
    <rect
       style="color:#4d4d4d;fill:currentColor;fill-opacity:1;stroke:none"
       id="rect4035-8"
       width="0"
       height="10.999983"
       x="537.72253"
       y="591.11926"
       class="ColorScheme-Text" />
    <rect
       style="color:#4d4d4d;fill:currentColor;fill-opacity:1;stroke:none"
       id="rect4035-59"
       width="0"
       height="10.999983"
       x="537.72253"
       y="591.11926"
       class="ColorScheme-Text" />
    <rect
       style="color:#4d4d4d;fill:currentColor;fill-opacity:1;stroke:none"
       id="rect4035-60"
       width="0"
       height="10.999983"
       x="516.25439"
       y="587.73975"
       class="ColorScheme-Text" />
    <rect
       style="color:#4d4d4d;fill:currentColor;fill-opacity:1;stroke:none"
       id="rect4035-5-15"
       width="0"
       height="10.999983"
       x="534.29517"
       y="585.68848"
       class="ColorScheme-Text" />
    <rect
       style="color:#4d4d4d;fill:currentColor;fill-opacity:1;stroke:none"
       id="rect4035-8-03"
       width="0"
       height="10.999983"
       x="516.25439"
       y="587.73975"
       class="ColorScheme-Text" />
    <rect
       style="color:#4d4d4d;fill:currentColor;fill-opacity:1;stroke:none"
       id="rect4035-59-10"
       width="0"
       height="10.999983"
       x="516.25439"
       y="587.73975"
       class="ColorScheme-Text" />
    <rect
       style="color:#4d4d4d;fill:currentColor;fill-opacity:1;stroke:none"
       id="rect4035-6"
       width="0"
       height="10.999983"
       x="508.94623"
       y="582.90515"
       class="ColorScheme-Text" />
    <rect
       style="color:#4d4d4d;fill:currentColor;fill-opacity:1;stroke:none"
       id="rect4035-5-1"
       width="0"
       height="10.999983"
       x="526.987"
       y="580.85376"
       class="ColorScheme-Text" />
    <rect
       style="color:#4d4d4d;fill:currentColor;fill-opacity:1;stroke:none"
       id="rect4035-8-3"
       width="0"
       height="10.999983"
       x="508.94623"
       y="582.90515"
       class="ColorScheme-Text" />
    <rect
       style="color:#4d4d4d;fill:currentColor;fill-opacity:1;stroke:none"
       id="rect4035-59-4"
       width="0"
       height="10.999983"
       x="508.94623"
       y="582.90515"
       class="ColorScheme-Text" />
    <rect
       style="color:#4d4d4d;fill:currentColor;fill-opacity:1;stroke:none"
       id="rect4035-1"
       width="0"
       height="10.999983"
       x="514.96136"
       y="587.12134"
       class="ColorScheme-Text" />
    <rect
       style="color:#4d4d4d;fill:currentColor;fill-opacity:1;stroke:none"
       id="rect4035-5-0"
       width="0"
       height="10.999983"
       x="533.00214"
       y="585.07007"
       class="ColorScheme-Text" />
    <rect
       style="color:#4d4d4d;fill:currentColor;fill-opacity:1;stroke:none"
       id="rect4035-8-1"
       width="0"
       height="10.999983"
       x="514.96136"
       y="587.12134"
       class="ColorScheme-Text" />
    <rect
       style="color:#4d4d4d;fill:currentColor;fill-opacity:1;stroke:none"
       id="rect4035-59-1"
       width="0"
       height="10.999983"
       x="514.96136"
       y="587.12134"
       class="ColorScheme-Text" />
    <rect
       style="color:#4d4d4d;fill:currentColor;fill-opacity:1;stroke:none"
       id="rect4035-0"
       width="0"
       height="10.999983"
       x="513.72253"
       y="591.11926"
       class="ColorScheme-Text" />
    <rect
       style="color:#4d4d4d;fill:currentColor;fill-opacity:1;stroke:none"
       id="rect4035-5-5"
       width="0"
       height="10.999983"
       x="531.76331"
       y="589.06799"
       class="ColorScheme-Text" />
    <rect
       style="color:#4d4d4d;fill:currentColor;fill-opacity:1;stroke:none"
       id="rect4035-8-6"
       width="0"
       height="10.999983"
       x="513.72253"
       y="591.11926"
       class="ColorScheme-Text" />
    <rect
       style="color:#4d4d4d;fill:currentColor;fill-opacity:1;stroke:none"
       id="rect4035-59-11"
       width="0"
       height="10.999983"
       x="513.72253"
       y="591.11926"
       class="ColorScheme-Text" />
    <rect
       style="color:#4d4d4d;fill:currentColor;fill-opacity:1;stroke:none"
       id="rect4035-9"
       width="0"
       height="10.999983"
       x="497.73444"
       y="587.48535"
       class="ColorScheme-Text" />
    <rect
       style="color:#4d4d4d;fill:currentColor;fill-opacity:1;stroke:none"
       id="rect4035-5-8"
       width="0"
       height="10.999983"
       x="515.77521"
       y="585.43408"
       class="ColorScheme-Text" />
    <rect
       style="color:#4d4d4d;fill:currentColor;fill-opacity:1;stroke:none"
       id="rect4035-8-0"
       width="0"
       height="10.999983"
       x="497.73444"
       y="587.48535"
       class="ColorScheme-Text" />
    <rect
       style="color:#4d4d4d;fill:currentColor;fill-opacity:1;stroke:none"
       id="rect4035-59-1-8"
       width="0"
       height="10.999983"
       x="497.73444"
       y="587.48535"
       class="ColorScheme-Text" />
    <g
       transform="translate(550.72253,-444.24294)"
       id="layer1-5"
       inkscape:label="Capa 1"
       style="opacity:0.72;fill:#ffffff;fill-opacity:1">
      <rect
         y="1034.9827"
         x="-37.468155"
         height="10.999983"
         width="0"
         id="rect4035-52"
         style="color:#4d4d4d;fill:#ffffff;fill-opacity:1;stroke:none"
         class="ColorScheme-Text" />
      <rect
         y="1032.9314"
         x="-19.427383"
         height="10.999983"
         width="0"
         id="rect4035-5-3"
         style="color:#4d4d4d;fill:#ffffff;fill-opacity:1;stroke:none"
         class="ColorScheme-Text" />
      <rect
         y="1034.9827"
         x="-37.468155"
         height="10.999983"
         width="0"
         id="rect4035-8-7"
         style="color:#4d4d4d;fill:#ffffff;fill-opacity:1;stroke:none"
         class="ColorScheme-Text" />
      <rect
         y="1034.9827"
         x="-37.468155"
         height="10.999983"
         width="0"
         id="rect4035-59-9"
         style="color:#4d4d4d;fill:#ffffff;fill-opacity:1;stroke:none"
         class="ColorScheme-Text" />
      <rect
         y="1030.1481"
         x="-44.776306"
         height="10.999983"
         width="0"
         id="rect4035-6-9"
         style="color:#4d4d4d;fill:#ffffff;fill-opacity:1;stroke:none"
         class="ColorScheme-Text" />
      <rect
         y="1028.0967"
         x="-26.735535"
         height="10.999983"
         width="0"
         id="rect4035-5-1-1"
         style="color:#4d4d4d;fill:#ffffff;fill-opacity:1;stroke:none"
         class="ColorScheme-Text" />
      <rect
         y="1030.1481"
         x="-44.776306"
         height="10.999983"
         width="0"
         id="rect4035-8-3-9"
         style="color:#4d4d4d;fill:#ffffff;fill-opacity:1;stroke:none"
         class="ColorScheme-Text" />
      <rect
         y="1030.1481"
         x="-44.776306"
         height="10.999983"
         width="0"
         id="rect4035-59-4-2"
         style="color:#4d4d4d;fill:#ffffff;fill-opacity:1;stroke:none"
         class="ColorScheme-Text" />
      <rect
         y="1034.3643"
         x="-38.761135"
         height="10.999983"
         width="0"
         id="rect4035-1-5"
         style="color:#4d4d4d;fill:#ffffff;fill-opacity:1;stroke:none"
         class="ColorScheme-Text" />
      <rect
         y="1032.313"
         x="-20.720364"
         height="10.999983"
         width="0"
         id="rect4035-5-0-1"
         style="color:#4d4d4d;fill:#ffffff;fill-opacity:1;stroke:none"
         class="ColorScheme-Text" />
      <rect
         y="1034.3643"
         x="-38.761135"
         height="10.999983"
         width="0"
         id="rect4035-8-1-1"
         style="color:#4d4d4d;fill:#ffffff;fill-opacity:1;stroke:none"
         class="ColorScheme-Text" />
      <rect
         y="1034.3643"
         x="-38.761135"
         height="10.999983"
         width="0"
         id="rect4035-59-1-7"
         style="color:#4d4d4d;fill:#ffffff;fill-opacity:1;stroke:none"
         class="ColorScheme-Text" />
      <rect
         y="1038.3622"
         x="-39.999996"
         height="10.999983"
         width="0"
         id="rect4035-0-9"
         style="color:#4d4d4d;fill:#ffffff;fill-opacity:1;stroke:none"
         class="ColorScheme-Text" />
      <rect
         y="1036.3109"
         x="-21.959225"
         height="10.999983"
         width="0"
         id="rect4035-5-5-6"
         style="color:#4d4d4d;fill:#ffffff;fill-opacity:1;stroke:none"
         class="ColorScheme-Text" />
      <rect
         y="1038.3622"
         x="-39.999996"
         height="10.999983"
         width="0"
         id="rect4035-8-6-3"
         style="color:#4d4d4d;fill:#ffffff;fill-opacity:1;stroke:none"
         class="ColorScheme-Text" />
      <rect
         y="1038.3622"
         x="-39.999996"
         height="10.999983"
         width="0"
         id="rect4035-59-11-1"
         style="color:#4d4d4d;fill:#ffffff;fill-opacity:1;stroke:none"
         class="ColorScheme-Text" />
      <rect
         y="1034.7283"
         x="-55.988094"
         height="10.999983"
         width="0"
         id="rect4035-9-0"
         style="color:#4d4d4d;fill:#ffffff;fill-opacity:1;stroke:none"
         class="ColorScheme-Text" />
      <rect
         y="1032.677"
         x="-37.947323"
         height="10.999983"
         width="0"
         id="rect4035-5-8-8"
         style="color:#4d4d4d;fill:#ffffff;fill-opacity:1;stroke:none"
         class="ColorScheme-Text" />
      <rect
         y="1034.7283"
         x="-55.988094"
         height="10.999983"
         width="0"
         id="rect4035-8-0-2"
         style="color:#4d4d4d;fill:#ffffff;fill-opacity:1;stroke:none"
         class="ColorScheme-Text" />
      <rect
         y="1034.7283"
         x="-55.988094"
         height="10.999983"
         width="0"
         id="rect4035-59-1-8-5"
         style="color:#4d4d4d;fill:#ffffff;fill-opacity:1;stroke:none"
         class="ColorScheme-Text" />
      <path
         id="rect4148"
         transform="translate(-1,1029.3622)"
         d="m 11.5,4 0,1.8125 1,0 0,-1.8125 -1,0 z M 6.6875,5.96875 5.96875,6.6875 7.25,8 7.96875,7.25 6.6875,5.96875 Z m 10.625,0 L 16.03125,7.25 16.75,8 18.03125,6.6875 17.3125,5.96875 Z M 12,7 c -2.761424,0 -5,2.2386 -5,5 0,2.7614 2.238576,5 5,5 2.761424,0 5,-2.2386 5,-5 0,-2.7614 -2.238576,-5 -5,-5 z m 0,1 0,8 C 9.790861,16 8,14.2091 8,12 8,9.7909 9.790861,8 12,8 Z m -8,3.5 0,1 1.8125,0 0,-1 L 4,11.5 Z m 14.1875,0 0,1 1.8125,0 0,-1 -1.8125,0 z M 7.25,16.03125 5.96875,17.3125 6.6875,18.03125 7.96875,16.75 7.25,16.03125 Z m 9.5,0 L 16.03125,16.75 17.3125,18.03125 18.03125,17.3125 16.75,16.03125 Z m -5.25,2.15625 0,1.8125 1,0 0,-1.8125 -1,0 z"
         style="color:#4d4d4d;fill:#ffffff;fill-opacity:1;stroke:none"
         inkscape:connector-curvature="0"
         class="ColorScheme-Text" />
    </g>
  </g>
</svg>

<?xml version="1.0" encoding="UTF-8" standalone="no"?>
<!-- Created with Inkscape (http://www.inkscape.org/) -->
<svg id="svg3760" xmlns:rdf="http://www.w3.org/1999/02/22-rdf-syntax-ns#" xmlns="http://www.w3.org/2000/svg" height="16" width="16" version="1.1" xmlns:cc="http://creativecommons.org/ns#" xmlns:dc="http://purl.org/dc/elements/1.1/">
 <defs id="defs3762">
  <style id="current-color-scheme" type="text/css">.ColorScheme-Text {
        color:#4d4d4d;
      }
      .ColorScheme-Background {
        color:#eff0f1;
      }
      .ColorScheme-Highlight {
        color:#3daee9;
      }
      .ColorScheme-ViewText {
        color:#31363b;
      }
      .ColorScheme-ViewBackground {
        color:#fcfcfc;
      }
      .ColorScheme-ViewHover {
        color:#93cee9;
      }
      .ColorScheme-ViewFocus{
        color:#3daee9;
      }
      .ColorScheme-ButtonText {
        color:#31363b;
      }
      .ColorScheme-ButtonBackground {
        color:#eff0f1;
      }
      .ColorScheme-ButtonHover {
        color:#93cee9;
      }
      .ColorScheme-ButtonFocus{
        color:#3daee9;
      }</style>
 </defs>
 <metadata id="metadata3765">
  <rdf:RDF>
   <cc:Work rdf:about="">
    <dc:format>image/svg+xml</dc:format>
    <dc:type rdf:resource="http://purl.org/dc/dcmitype/StillImage"/>
    <dc:title/>
   </cc:Work>
  </rdf:RDF>
 </metadata>
 <g id="layer1" transform="translate(-553.72 -589.12)">
  <rect id="rect4035" style="color:#4d4d4d" class="ColorScheme-Text" height="11" width="0" y="591.12" x="537.72" fill="currentColor"/>
  <rect id="rect4035-5" style="color:#4d4d4d" class="ColorScheme-Text" height="11" width="0" y="589.07" x="555.76" fill="currentColor"/>
  <rect id="rect4035-8" style="color:#4d4d4d" class="ColorScheme-Text" height="11" width="0" y="591.12" x="537.72" fill="currentColor"/>
  <rect id="rect4035-59" style="color:#4d4d4d" class="ColorScheme-Text" height="11" width="0" y="591.12" x="537.72" fill="currentColor"/>
  <rect id="rect4035-60" style="color:#4d4d4d" class="ColorScheme-Text" height="11" width="0" y="587.74" x="516.25" fill="currentColor"/>
  <rect id="rect4035-5-15" style="color:#4d4d4d" class="ColorScheme-Text" height="11" width="0" y="585.69" x="534.3" fill="currentColor"/>
  <rect id="rect4035-8-03" style="color:#4d4d4d" class="ColorScheme-Text" height="11" width="0" y="587.74" x="516.25" fill="currentColor"/>
  <rect id="rect4035-59-10" style="color:#4d4d4d" class="ColorScheme-Text" height="11" width="0" y="587.74" x="516.25" fill="currentColor"/>
  <rect id="rect4035-6" style="color:#4d4d4d" class="ColorScheme-Text" height="11" width="0" y="582.91" x="508.95" fill="currentColor"/>
  <rect id="rect4035-5-1" style="color:#4d4d4d" class="ColorScheme-Text" height="11" width="0" y="580.85" x="526.99" fill="currentColor"/>
  <rect id="rect4035-8-3" style="color:#4d4d4d" class="ColorScheme-Text" height="11" width="0" y="582.91" x="508.95" fill="currentColor"/>
  <rect id="rect4035-59-4" style="color:#4d4d4d" class="ColorScheme-Text" height="11" width="0" y="582.91" x="508.95" fill="currentColor"/>
  <rect id="rect4035-1" style="color:#4d4d4d" class="ColorScheme-Text" height="11" width="0" y="587.12" x="514.96" fill="currentColor"/>
  <rect id="rect4035-5-0" style="color:#4d4d4d" class="ColorScheme-Text" height="11" width="0" y="585.07" x="533" fill="currentColor"/>
  <rect id="rect4035-8-1" style="color:#4d4d4d" class="ColorScheme-Text" height="11" width="0" y="587.12" x="514.96" fill="currentColor"/>
  <rect id="rect4035-59-1" style="color:#4d4d4d" class="ColorScheme-Text" height="11" width="0" y="587.12" x="514.96" fill="currentColor"/>
  <rect id="rect4035-0" style="color:#4d4d4d" class="ColorScheme-Text" height="11" width="0" y="591.12" x="513.72" fill="currentColor"/>
  <rect id="rect4035-5-5" style="color:#4d4d4d" class="ColorScheme-Text" height="11" width="0" y="589.07" x="531.76" fill="currentColor"/>
  <rect id="rect4035-8-6" style="color:#4d4d4d" class="ColorScheme-Text" height="11" width="0" y="591.12" x="513.72" fill="currentColor"/>
  <rect id="rect4035-59-11" style="color:#4d4d4d" class="ColorScheme-Text" height="11" width="0" y="591.12" x="513.72" fill="currentColor"/>
  <rect id="rect4035-9" style="color:#4d4d4d" class="ColorScheme-Text" height="11" width="0" y="587.49" x="497.73" fill="currentColor"/>
  <rect id="rect4035-5-8" style="color:#4d4d4d" class="ColorScheme-Text" height="11" width="0" y="585.43" x="515.78" fill="currentColor"/>
  <rect id="rect4035-8-0" style="color:#4d4d4d" class="ColorScheme-Text" height="11" width="0" y="587.49" x="497.73" fill="currentColor"/>
  <rect id="rect4035-59-1-8" style="color:#4d4d4d" class="ColorScheme-Text" height="11" width="0" y="587.49" x="497.73" fill="currentColor"/>
  <g id="layer1-5" opacity=".72" transform="translate(550.72 -444.24)" fill="#fff">
   <rect id="rect4035-52" style="color:#4d4d4d" class="ColorScheme-Text" height="11" width="0" y="1035" x="-37.468"/>
   <rect id="rect4035-5-3" style="color:#4d4d4d" class="ColorScheme-Text" height="11" width="0" y="1032.9" x="-19.427"/>
   <rect id="rect4035-8-7" style="color:#4d4d4d" class="ColorScheme-Text" height="11" width="0" y="1035" x="-37.468"/>
   <rect id="rect4035-59-9" style="color:#4d4d4d" class="ColorScheme-Text" height="11" width="0" y="1035" x="-37.468"/>
   <rect id="rect4035-6-9" style="color:#4d4d4d" class="ColorScheme-Text" height="11" width="0" y="1030.1" x="-44.776"/>
   <rect id="rect4035-5-1-1" style="color:#4d4d4d" class="ColorScheme-Text" height="11" width="0" y="1028.1" x="-26.736"/>
   <rect id="rect4035-8-3-9" style="color:#4d4d4d" class="ColorScheme-Text" height="11" width="0" y="1030.1" x="-44.776"/>
   <rect id="rect4035-59-4-2" style="color:#4d4d4d" class="ColorScheme-Text" height="11" width="0" y="1030.1" x="-44.776"/>
   <rect id="rect4035-1-5" style="color:#4d4d4d" class="ColorScheme-Text" height="11" width="0" y="1034.4" x="-38.761"/>
   <rect id="rect4035-5-0-1" style="color:#4d4d4d" class="ColorScheme-Text" height="11" width="0" y="1032.3" x="-20.72"/>
   <rect id="rect4035-8-1-1" style="color:#4d4d4d" class="ColorScheme-Text" height="11" width="0" y="1034.4" x="-38.761"/>
   <rect id="rect4035-59-1-7" style="color:#4d4d4d" class="ColorScheme-Text" height="11" width="0" y="1034.4" x="-38.761"/>
   <rect id="rect4035-0-9" style="color:#4d4d4d" class="ColorScheme-Text" height="11" width="0" y="1038.4" x="-40"/>
   <rect id="rect4035-5-5-6" style="color:#4d4d4d" class="ColorScheme-Text" height="11" width="0" y="1036.3" x="-21.959"/>
   <rect id="rect4035-8-6-3" style="color:#4d4d4d" class="ColorScheme-Text" height="11" width="0" y="1038.4" x="-40"/>
   <rect id="rect4035-59-11-1" style="color:#4d4d4d" class="ColorScheme-Text" height="11" width="0" y="1038.4" x="-40"/>
   <rect id="rect4035-9-0" style="color:#4d4d4d" class="ColorScheme-Text" height="11" width="0" y="1034.7" x="-55.988"/>
   <rect id="rect4035-5-8-8" style="color:#4d4d4d" class="ColorScheme-Text" height="11" width="0" y="1032.7" x="-37.947"/>
   <rect id="rect4035-8-0-2" style="color:#4d4d4d" class="ColorScheme-Text" height="11" width="0" y="1034.7" x="-55.988"/>
   <rect id="rect4035-59-1-8-5" style="color:#4d4d4d" class="ColorScheme-Text" height="11" width="0" y="1034.7" x="-55.988"/>
   <path id="rect4148" style="color:#4d4d4d" d="m11.5 4v1.8125h1v-1.8125h-1zm-4.8125 1.9688-0.7187 0.7187 1.2812 1.3125 0.7188-0.75-1.2813-1.2812zm10.625 0l-1.281 1.2812 0.719 0.75 1.281-1.3125-0.719-0.7187zm-5.312 1.0312c-2.7614 0-5 2.2386-5 5s2.2386 5 5 5 5-2.2386 5-5-2.2386-5-5-5zm0 1v8c-2.2091 0-4-1.791-4-4 0-2.2091 1.7909-4 4-4zm-8 3.5v1h1.8125v-1h-1.8125zm14.188 0v1h1.8125v-1h-1.8125zm-10.938 4.531-1.2812 1.281 0.7187 0.719 1.2813-1.281-0.7188-0.719zm9.5 0l-0.719 0.719 1.281 1.281 0.719-0.719-1.281-1.281zm-5.25 2.1562v1.8125h1v-1.8125h-1z" transform="translate(-1 1029.4)" class="ColorScheme-Text"/>
  </g>
 </g>
</svg>
